images/logo.svg

<svg width="152" height="20" fill="none" xmlns="http://www.w3.org/2000/svg"><path d="M8.294.592h3.302l2.08 6.11 2.08-6.11h3.328L15.938 8.99l2.34 5.902L23.504.54h3.9L19.89 19h-3.016l-3.198-7.748L10.478 19H7.462L0 .54h3.848L9.1 14.892l2.288-5.902L8.294.592zM34.3793 19.26c-1.092 0-2.08-.182-2.964-.546-.884-.3813-1.638-.8927-2.262-1.534-.624-.6413-1.1093-1.3867-1.456-2.236-.3293-.8493-.494-1.742-.494-2.678 0-.9707.1647-1.8807.494-2.73.3293-.8667.806-1.6207 1.43-2.262.624-.6587 1.378-1.1787 2.262-1.56.9013-.3813 1.9067-.572 3.016-.572s2.0973.1907 2.964.572c.884.3813 1.6293.8927 2.236 1.534.624.6413 1.092 1.3867 1.404 2.236.3293.8493.494 1.7333.494 2.652 0 .2253-.0087.442-.026.65 0 .208-.0173.3813-.052.52h-10.53c.052.5373.182 1.014.39 1.43.208.416.4767.7713.806 1.066.3293.2947.702.52 1.118.676.416.156.8493.234 1.3.234.6933 0 1.3433-.1647 1.95-.494.624-.3467 1.0487-.7973 1.274-1.352l2.99.832c-.5027 1.04-1.3087 1.898-2.418 2.574-1.092.6587-2.4007.988-3.926.988zm3.536-8.216c-.0867-1.0227-.468-1.8373-1.144-2.444-.6587-.624-1.4647-.936-2.418-.936-.468 0-.91.0867-1.326.26a3.2783 3.2783 0 00-1.066.676c-.312.2947-.572.65-.78 1.066-.1907.416-.3033.8753-.338 1.378h7.072zm14.2385 8.216c-1.04 0-1.9674-.234-2.782-.702-.8147-.468-1.456-1.1093-1.924-1.924V19h-3.042V.02h3.484v7.748c.4853-.832 1.118-1.4733 1.898-1.924.7973-.468 1.7246-.702 2.782-.702.884 0 1.69.1907 2.418.572.728.3813 1.352.8927 1.872 1.534.5373.6413.9446 1.3953 1.222 2.262.2946.8667.442 1.7767.442 2.73 0 .988-.1647 1.9067-.494 2.756-.312.8493-.754 1.5947-1.326 2.236-.572.624-1.248 1.118-2.028 1.482-.78.364-1.6207.546-2.522.546zm-.962-2.964c.5546 0 1.066-.104 1.534-.312.468-.2253.8666-.52 1.196-.884.3293-.364.5806-.7887.754-1.274.1906-.4853.286-1.0053.286-1.56s-.0867-1.0833-.26-1.586c-.1734-.5027-.4247-.9447-.754-1.326-.312-.3813-.6847-.6847-1.118-.91-.4334-.2253-.91-.338-1.43-.338-.78 0-1.482.26-2.106.78-.6067.5027-1.0747 1.1267-1.404 1.872v3.25c.1213.3467.2946.6587.52.936.2426.2773.5113.52.806.728.2946.1907.6153.3467.962.468.3466.104.6846.156 1.014.156z" fill="#2196F3"/><path d="M80.0264 5.376c-.1214-.1213-.3467-.286-.676-.494-.312-.208-.702-.4073-1.17-.598-.4507-.208-.9447-.3813-1.482-.52a6.5299 6.5299 0 00-1.638-.208c-.988 0-1.7247.182-2.21.546-.4854.364-.728.8753-.728 1.534 0 .3813.0866.702.26.962.1906.2427.4593.4593.806.65.3466.1907.78.364 1.3.52.5373.156 1.1526.3207 1.846.494.9013.2427 1.716.5027 2.444.78.7453.2773 1.3693.624 1.872 1.04.52.416.9186.9187 1.196 1.508.2773.572.416 1.2827.416 2.132 0 .988-.1907 1.8373-.572 2.548-.364.6933-.8667 1.2567-1.508 1.69-.624.4333-1.352.754-2.184.962-.8147.1907-1.6727.286-2.574.286-1.3867 0-2.756-.208-4.108-.624-1.352-.416-2.5654-1.0053-3.64-1.768l1.586-3.094c.156.156.4333.364.832.624.416.2427.9013.494 1.456.754.5546.2427 1.17.4507 1.846.624.676.1733 1.3693.26 2.08.26 1.976 0 2.964-.6327 2.964-1.898 0-.3987-.1127-.7367-.338-1.014-.2254-.2773-.546-.52-.962-.728-.416-.208-.9187-.3987-1.508-.572-.5894-.1733-1.248-.364-1.976-.572-.884-.2427-1.6554-.5027-2.314-.78-.6414-.2947-1.1787-.6327-1.612-1.014-.4334-.3987-.7627-.8493-.988-1.352-.208-.52-.312-1.1353-.312-1.846 0-.936.1733-1.768.52-2.496.3466-.728.8233-1.3347 1.43-1.82.624-.4853 1.3433-.8493 2.158-1.092.8146-.26 1.69-.39 2.626-.39 1.3 0 2.496.208 3.588.624 1.092.3987 2.0453.8753 2.86 1.43l-1.586 2.912zm13.4009 12.922c-.468.208-1.04.416-1.716.624-.676.208-1.3866.312-2.132.312-.4853 0-.9446-.0607-1.378-.182-.416-.1213-.7886-.312-1.118-.572-.312-.2773-.5633-.624-.754-1.04-.1906-.4333-.286-.9533-.286-1.56V8.054h-1.794V5.376h1.794V.956h3.484v4.42h2.86v2.678h-2.86v6.656c0 .4853.1214.832.364 1.04.26.1907.572.286.936.286.364 0 .7194-.0607 1.066-.182.3467-.1213.624-.2253.832-.312l.702 2.756zm6.7547.962c-1.4041 0-2.4701-.4507-3.1981-1.352-.728-.9013-1.092-2.236-1.092-4.004V5.376h3.484v7.774c0 2.0973.7541 3.146 2.2621 3.146.676 0 1.326-.1993 1.95-.598.641-.416 1.161-1.04 1.56-1.872v-8.45h3.484v9.62c0 .364.061.624.182.78.139.156.355.2427.65.26V19c-.347.0693-.641.1127-.884.13-.225.0173-.433.026-.624.026-.624 0-1.135-.1387-1.534-.416-.381-.2947-.607-.6933-.676-1.196l-.078-1.092c-.607.936-1.387 1.638-2.34 2.106-.953.468-2.002.702-3.146.702zm18.334 0c-.936 0-1.803-.182-2.6-.546-.797-.364-1.482-.8667-2.054-1.508-.572-.6413-1.023-1.3867-1.352-2.236-.312-.8667-.468-1.794-.468-2.782s.147-1.9067.442-2.756c.312-.8493.737-1.5947 1.274-2.236.537-.6413 1.179-1.144 1.924-1.508.745-.364 1.56-.546 2.444-.546 1.005 0 1.907.2427 2.704.728.815.4853 1.447 1.118 1.898 1.898V.02h3.484v14.976c0 .364.061.624.182.78.121.156.329.2427.624.26V19c-.607.1213-1.101.182-1.482.182-.624 0-1.135-.156-1.534-.468-.399-.312-.624-.7193-.676-1.222l-.078-.858c-.503.8667-1.187 1.5253-2.054 1.976-.849.4333-1.742.65-2.678.65zm.91-2.964c.329 0 .667-.052 1.014-.156.347-.1213.667-.286.962-.494.295-.208.555-.4507.78-.728.243-.2773.425-.5807.546-.91v-3.25a3.4666 3.4666 0 00-.598-1.04c-.243-.3293-.529-.6067-.858-.832a3.9121 3.9121 0 00-1.014-.572c-.347-.1387-.693-.208-1.04-.208-.52 0-1.005.1127-1.456.338-.433.2253-.806.5373-1.118.936-.312.3813-.555.8233-.728 1.326a4.7612 4.7612 0 00-.26 1.56c0 .572.095 1.1007.286 1.586.191.4853.451.91.78 1.274s.719.65 1.17.858c.468.208.979.312 1.534.312zM130.412 19V5.376h3.484V19h-3.484zm0-15.522V.02h3.484v3.458h-3.484zm13.699 15.782c-1.109 0-2.106-.1907-2.99-.572-.884-.3813-1.638-.8927-2.262-1.534-.607-.6587-1.075-1.4127-1.404-2.262-.329-.8493-.494-1.742-.494-2.678 0-.9533.165-1.8547.494-2.704.329-.8493.797-1.5947 1.404-2.236.624-.6587 1.378-1.1787 2.262-1.56.884-.3813 1.881-.572 2.99-.572 1.109 0 2.097.1907 2.964.572.884.3813 1.629.9013 2.236 1.56.624.6413 1.101 1.3867 1.43 2.236.329.8493.494 1.7507.494 2.704 0 .936-.165 1.8287-.494 2.678-.329.8493-.797 1.6033-1.404 2.262-.607.6413-1.352 1.1527-2.236 1.534-.884.3813-1.881.572-2.99.572zm-3.562-7.046c0 .6067.087 1.1613.26 1.664.191.4853.442.91.754 1.274.329.364.711.65 1.144.858.433.1907.901.286 1.404.286.503 0 .971-.0953 1.404-.286.433-.208.806-.494 1.118-.858.329-.364.581-.7973.754-1.3.191-.5027.286-1.0573.286-1.664 0-.5893-.095-1.1353-.286-1.638-.173-.5027-.425-.936-.754-1.3-.312-.364-.685-.6413-1.118-.832-.433-.208-.901-.312-1.404-.312-.503 0-.971.104-1.404.312-.433.208-.815.494-1.144.858-.312.364-.563.7973-.754 1.3-.173.5027-.26 1.0487-.26 1.638z" fill="#000"/></svg>

<svg width="152" height="20" viewBox="0 0 152 20" fill="none" xmlns="http://www.w3.org/2000/svg">
<path d="M8.294 0.592H11.596L13.676 6.702L15.756 0.592H19.084L15.938 8.99L18.278 14.892L23.504 0.539999H27.404L19.89 19H16.874L13.676 11.252L10.478 19H7.462L0 0.539999H3.848L9.1 14.892L11.388 8.99L8.294 0.592ZM34.3793 19.26C33.2873 19.26 32.2993 19.078 31.4153 18.714C30.5313 18.3327 29.7773 17.8213 29.1533 17.18C28.5293 16.5387 28.044 15.7933 27.6973 14.944C27.368 14.0947 27.2033 13.202 27.2033 12.266C27.2033 11.2953 27.368 10.3853 27.6973 9.536C28.0266 8.66933 28.5033 7.91533 29.1273 7.274C29.7513 6.61533 30.5053 6.09533 31.3893 5.714C32.2906 5.33267 33.296 5.142 34.4053 5.142C35.5146 5.142 36.5026 5.33267 37.3693 5.714C38.2533 6.09533 38.9986 6.60667 39.6053 7.248C40.2293 7.88933 40.6973 8.63467 41.0093 9.484C41.3386 10.3333 41.5033 11.2173 41.5033 12.136C41.5033 12.3613 41.4946 12.578 41.4773 12.786C41.4773 12.994 41.46 13.1673 41.4253 13.306H30.8953C30.9473 13.8433 31.0773 14.32 31.2853 14.736C31.4933 15.152 31.762 15.5073 32.0913 15.802C32.4206 16.0967 32.7933 16.322 33.2093 16.478C33.6253 16.634 34.0586 16.712 34.5093 16.712C35.2026 16.712 35.8526 16.5473 36.4593 16.218C37.0833 15.8713 37.508 15.4207 37.7333 14.866L40.7233 15.698C40.2206 16.738 39.4146 17.596 38.3053 18.272C37.2133 18.9307 35.9046 19.26 34.3793 19.26ZM37.9153 11.044C37.8286 10.0213 37.4473 9.20667 36.7713 8.6C36.1126 7.976 35.3066 7.664 34.3533 7.664C33.8853 7.664 33.4433 7.75067 33.0273 7.924C32.6286 8.08 32.2733 8.30533 31.9613 8.6C31.6493 8.89467 31.3893 9.25 31.1813 9.666C30.9906 10.082 30.878 10.5413 30.8433 11.044H37.9153ZM52.1538 19.26C51.1138 19.26 50.1864 19.026 49.3718 18.558C48.5571 18.09 47.9158 17.4487 47.4478 16.634V19H44.4058V0.0199995H47.8898V7.768C48.3751 6.936 49.0078 6.29467 49.7878 5.844C50.5851 5.376 51.5124 5.142 52.5698 5.142C53.4538 5.142 54.2598 5.33267 54.9878 5.714C55.7158 6.09533 56.3398 6.60667 56.8598 7.248C57.3971 7.88933 57.8044 8.64333 58.0818 9.51C58.3764 10.3767 58.5238 11.2867 58.5238 12.24C58.5238 13.228 58.3591 14.1467 58.0298 14.996C57.7178 15.8453 57.2758 16.5907 56.7038 17.232C56.1318 17.856 55.4558 18.35 54.6758 18.714C53.8958 19.078 53.0551 19.26 52.1538 19.26ZM51.1918 16.296C51.7464 16.296 52.2578 16.192 52.7258 15.984C53.1938 15.7587 53.5924 15.464 53.9218 15.1C54.2511 14.736 54.5024 14.3113 54.6758 13.826C54.8664 13.3407 54.9618 12.8207 54.9618 12.266C54.9618 11.7113 54.8751 11.1827 54.7018 10.68C54.5284 10.1773 54.2771 9.73533 53.9478 9.354C53.6358 8.97267 53.2631 8.66933 52.8298 8.444C52.3964 8.21867 51.9198 8.106 51.3998 8.106C50.6198 8.106 49.9178 8.366 49.2938 8.886C48.6871 9.38867 48.2191 10.0127 47.8898 10.758V14.008C48.0111 14.3547 48.1844 14.6667 48.4098 14.944C48.6524 15.2213 48.9211 15.464 49.2158 15.672C49.5104 15.8627 49.8311 16.0187 50.1778 16.14C50.5244 16.244 50.8624 16.296 51.1918 16.296Z" fill="#2196F3"/>
<path d="M80.0264 5.376C79.905 5.25467 79.6797 5.09 79.3504 4.882C79.0384 4.674 78.6484 4.47467 78.1804 4.284C77.7297 4.076 77.2357 3.90267 76.6984 3.764C76.161 3.62533 75.615 3.556 75.0604 3.556C74.0724 3.556 73.3357 3.738 72.8504 4.102C72.365 4.466 72.1224 4.97733 72.1224 5.636C72.1224 6.01733 72.209 6.338 72.3824 6.598C72.573 6.84067 72.8417 7.05733 73.1884 7.248C73.535 7.43867 73.9684 7.612 74.4884 7.768C75.0257 7.924 75.641 8.08867 76.3344 8.262C77.2357 8.50467 78.0504 8.76467 78.7784 9.042C79.5237 9.31933 80.1477 9.666 80.6504 10.082C81.1704 10.498 81.569 11.0007 81.8464 11.59C82.1237 12.162 82.2624 12.8727 82.2624 13.722C82.2624 14.71 82.0717 15.5593 81.6904 16.27C81.3264 16.9633 80.8237 17.5267 80.1824 17.96C79.5584 18.3933 78.8304 18.714 77.9984 18.922C77.1837 19.1127 76.3257 19.208 75.4244 19.208C74.0377 19.208 72.6684 19 71.3164 18.584C69.9644 18.168 68.751 17.5787 67.6764 16.816L69.2624 13.722C69.4184 13.878 69.6957 14.086 70.0944 14.346C70.5104 14.5887 70.9957 14.84 71.5504 15.1C72.105 15.3427 72.7204 15.5507 73.3964 15.724C74.0724 15.8973 74.7657 15.984 75.4764 15.984C77.4524 15.984 78.4404 15.3513 78.4404 14.086C78.4404 13.6873 78.3277 13.3493 78.1024 13.072C77.877 12.7947 77.5564 12.552 77.1404 12.344C76.7244 12.136 76.2217 11.9453 75.6324 11.772C75.043 11.5987 74.3844 11.408 73.6564 11.2C72.7724 10.9573 72.001 10.6973 71.3424 10.42C70.701 10.1253 70.1637 9.78733 69.7304 9.406C69.297 9.00733 68.9677 8.55667 68.7424 8.054C68.5344 7.534 68.4304 6.91867 68.4304 6.208C68.4304 5.272 68.6037 4.44 68.9504 3.712C69.297 2.984 69.7737 2.37733 70.3804 1.892C71.0044 1.40667 71.7237 1.04267 72.5384 0.799999C73.353 0.539999 74.2284 0.409999 75.1644 0.409999C76.4644 0.409999 77.6604 0.617999 78.7524 1.034C79.8444 1.43267 80.7977 1.90933 81.6124 2.464L80.0264 5.376ZM93.4273 18.298C92.9593 18.506 92.3873 18.714 91.7113 18.922C91.0353 19.13 90.3247 19.234 89.5793 19.234C89.094 19.234 88.6347 19.1733 88.2013 19.052C87.7853 18.9307 87.4127 18.74 87.0833 18.48C86.7713 18.2027 86.52 17.856 86.3293 17.44C86.1387 17.0067 86.0433 16.4867 86.0433 15.88V8.054H84.2493V5.376H86.0433V0.956H89.5273V5.376H92.3873V8.054H89.5273V14.71C89.5273 15.1953 89.6487 15.542 89.8913 15.75C90.1513 15.9407 90.4633 16.036 90.8273 16.036C91.1913 16.036 91.5467 15.9753 91.8933 15.854C92.24 15.7327 92.5173 15.6287 92.7253 15.542L93.4273 18.298ZM100.182 19.26C98.7779 19.26 97.7119 18.8093 96.9839 17.908C96.2559 17.0067 95.8919 15.672 95.8919 13.904V5.376H99.3759V13.15C99.3759 15.2473 100.13 16.296 101.638 16.296C102.314 16.296 102.964 16.0967 103.588 15.698C104.229 15.282 104.749 14.658 105.148 13.826V5.376H108.632V14.996C108.632 15.36 108.693 15.62 108.814 15.776C108.953 15.932 109.169 16.0187 109.464 16.036V19C109.117 19.0693 108.823 19.1127 108.58 19.13C108.355 19.1473 108.147 19.156 107.956 19.156C107.332 19.156 106.821 19.0173 106.422 18.74C106.041 18.4453 105.815 18.0467 105.746 17.544L105.668 16.452C105.061 17.388 104.281 18.09 103.328 18.558C102.375 19.026 101.326 19.26 100.182 19.26ZM118.516 19.26C117.58 19.26 116.713 19.078 115.916 18.714C115.119 18.35 114.434 17.8473 113.862 17.206C113.29 16.5647 112.839 15.8193 112.51 14.97C112.198 14.1033 112.042 13.176 112.042 12.188C112.042 11.2 112.189 10.2813 112.484 9.432C112.796 8.58267 113.221 7.83733 113.758 7.196C114.295 6.55467 114.937 6.052 115.682 5.688C116.427 5.324 117.242 5.142 118.126 5.142C119.131 5.142 120.033 5.38467 120.83 5.87C121.645 6.35533 122.277 6.988 122.728 7.768V0.0199995H126.212V14.996C126.212 15.36 126.273 15.62 126.394 15.776C126.515 15.932 126.723 16.0187 127.018 16.036V19C126.411 19.1213 125.917 19.182 125.536 19.182C124.912 19.182 124.401 19.026 124.002 18.714C123.603 18.402 123.378 17.9947 123.326 17.492L123.248 16.634C122.745 17.5007 122.061 18.1593 121.194 18.61C120.345 19.0433 119.452 19.26 118.516 19.26ZM119.426 16.296C119.755 16.296 120.093 16.244 120.44 16.14C120.787 16.0187 121.107 15.854 121.402 15.646C121.697 15.438 121.957 15.1953 122.182 14.918C122.425 14.6407 122.607 14.3373 122.728 14.008V10.758C122.589 10.3767 122.39 10.03 122.13 9.718C121.887 9.38867 121.601 9.11133 121.272 8.886C120.96 8.64333 120.622 8.45267 120.258 8.314C119.911 8.17533 119.565 8.106 119.218 8.106C118.698 8.106 118.213 8.21867 117.762 8.444C117.329 8.66933 116.956 8.98133 116.644 9.38C116.332 9.76133 116.089 10.2033 115.916 10.706C115.743 11.2087 115.656 11.7287 115.656 12.266C115.656 12.838 115.751 13.3667 115.942 13.852C116.133 14.3373 116.393 14.762 116.722 15.126C117.051 15.49 117.441 15.776 117.892 15.984C118.36 16.192 118.871 16.296 119.426 16.296ZM130.412 19V5.376H133.896V19H130.412ZM130.412 3.478V0.0199995H133.896V3.478H130.412ZM144.111 19.26C143.002 19.26 142.005 19.0693 141.121 18.688C140.237 18.3067 139.483 17.7953 138.859 17.154C138.252 16.4953 137.784 15.7413 137.455 14.892C137.126 14.0427 136.961 13.15 136.961 12.214C136.961 11.2607 137.126 10.3593 137.455 9.51C137.784 8.66067 138.252 7.91533 138.859 7.274C139.483 6.61533 140.237 6.09533 141.121 5.714C142.005 5.33267 143.002 5.142 144.111 5.142C145.22 5.142 146.208 5.33267 147.075 5.714C147.959 6.09533 148.704 6.61533 149.311 7.274C149.935 7.91533 150.412 8.66067 150.741 9.51C151.07 10.3593 151.235 11.2607 151.235 12.214C151.235 13.15 151.07 14.0427 150.741 14.892C150.412 15.7413 149.944 16.4953 149.337 17.154C148.73 17.7953 147.985 18.3067 147.101 18.688C146.217 19.0693 145.22 19.26 144.111 19.26ZM140.549 12.214C140.549 12.8207 140.636 13.3753 140.809 13.878C141 14.3633 141.251 14.788 141.563 15.152C141.892 15.516 142.274 15.802 142.707 16.01C143.14 16.2007 143.608 16.296 144.111 16.296C144.614 16.296 145.082 16.2007 145.515 16.01C145.948 15.802 146.321 15.516 146.633 15.152C146.962 14.788 147.214 14.3547 147.387 13.852C147.578 13.3493 147.673 12.7947 147.673 12.188C147.673 11.5987 147.578 11.0527 147.387 10.55C147.214 10.0473 146.962 9.614 146.633 9.25C146.321 8.886 145.948 8.60867 145.515 8.418C145.082 8.21 144.614 8.106 144.111 8.106C143.608 8.106 143.14 8.21 142.707 8.418C142.274 8.626 141.892 8.912 141.563 9.276C141.251 9.64 141 10.0733 140.809 10.576C140.636 11.0787 140.549 11.6247 140.549 12.214Z" fill="black"/>
</svg>
